X:63
T:Take, o take those lips away
Z:Jack Campin, http://www.campin.me.uk/
F:Jack Campin's Nine-Note Tunebook
% last edit 03-02-2013
C:John Wilson, early 1600s
M:C
L:1/8
Q:1/4=80
K:DMin
z4 A4-|A2 G2 FD d2-|d2 ^c=B cd2c|d6
cB|A3   A  G3   F |F8        |\
   A3   A  G2 (AG)|F3   D d4 |\
   d3   d  c2  A2 |G3   c c4 |
   A3   A  G2  c2 |A2 =B2 c4 |\
   A2 (GF) G2  F2 |E3   D D4|]

